local/share/icons/dracula-icons-main/symbolic/categories/cs-desklets-symbolic.svg

<svg width="16" height="16" version="1.1" viewBox="0 0 16 16" xmlns="http://www.w3.org/2000/svg">
 <g transform="translate(0 -1036.4)" fill="#555555" stroke-linecap="round" stroke-linejoin="round" stroke-opacity=".25" stroke-width="1.0016">
  <path transform="translate(0 1036.4)" d="m3 1c-1.108 0-2 0.892-2 2v10c0 1.108 0.892 2 2 2h7l2-2h-9v-8h10v7l2-2v-7c0-1.108-0.892-2-2-2h-10z" style="paint-order:markers stroke fill"/>
  <path d="m9 1045.4h4l2 1-5 5-1-2z" style="paint-order:markers stroke fill"/>
 </g>
</svg>

<?xml version="1.0" encoding="UTF-8"?>
<svg xmlns="http://www.w3.org/2000/svg" xmlns:xlink="http://www.w3.org/1999/xlink" width="16" height="16" viewBox="0 0 16 16">
<path fill-rule="nonzero" fill="rgb(33.333333%, 33.333333%, 33.333333%)" fill-opacity="1" d="M 3 1 C 1.890625 1 1 1.890625 1 3 L 1 13 C 1 14.109375 1.890625 15 3 15 L 10 15 L 12 13 L 3 13 L 3 5 L 13 5 L 13 12 L 15 10 L 15 3 C 15 1.890625 14.109375 1 13 1 Z M 3 1 "/>
<path fill-rule="nonzero" fill="rgb(33.333333%, 33.333333%, 33.333333%)" fill-opacity="1" d="M 9 9 L 13 9 L 15 10 L 10 15 L 9 13 Z M 9 9 "/>
</svg>
